X: 6129
T: Captain Kelly
R: reel
M: 4/4
K: Gmajor
GBAB G2 ge|dBGB AE E2|GBAB G2 ge|dBAd BGGF|
GBAB G2 ge|dBGB AE E2|GBAB G2 ge|dBAd BGBd||
g2bg agbg|defg agfa|g2 bg agbg|defg agfa|
g2bg agbg|defg afdf|gfeg fdd2|eaaf gedB||

